svgs/sharp-regular/envelope-open-text.svg

<svg xmlns="http://www.w3.org/2000/svg" viewBox="0 0 512 512"><!--! Font Awesome Pro 6.4.0 by @fontawesome - https://fontawesome.com License - https://fontawesome.com/license (Commercial License) Copyright 2023 Fonticons, Inc. --><path d="M112 48V215.6L64 183V48 0h48H400h48V48 183l-48 32.6V48H112zM256 410l-27-18.3L48 268.9V464H464V268.9L283 391.7 256 410zM464 210.9l48-32.6v58V464v48H464 48 0V464 236.3v-58l48 32.6L256 352 464 210.9zM184 96H328h24v48H328 184 160V96h24zm0 80H328h24v48H328 184 160V176h24z"/></svg>

<svg xmlns="http://www.w3.org/2000/svg" viewBox="0 0 512 512"><!--! Font Awesome Pro 6.6.0 by @fontawesome - https://fontawesome.com License - https://fontawesome.com/license (Commercial License) Copyright 2024 Fonticons, Inc. --><path d="M112 48l0 167.6L64 183 64 48 64 0l48 0L400 0l48 0 0 48 0 135-48 32.6L400 48 112 48zM256 410l-27-18.3L48 268.9 48 464l416 0 0-195.1L283 391.7 256 410zM464 210.9l48-32.6 0 58L512 464l0 48-48 0L48 512 0 512l0-48L0 236.3l0-58 48 32.6L256 352 464 210.9zM184 96l144 0 24 0 0 48-24 0-144 0-24 0 0-48 24 0zm0 80l144 0 24 0 0 48-24 0-144 0-24 0 0-48 24 0z"/></svg>
